packages/core/src/svgs/wwy.svg

<svg width="24" height="24" viewBox="0 0 24 24" fill="none" xmlns="http://www.w3.org/2000/svg">
<g clip-path="url(#clip0_31_20825)">
<path d="M0 0H24V24H0V0Z" fill="url(#paint0_linear_31_20825)"/>
<path d="M2.27146 10.7057C2.18589 10.6086 2.13867 10.4836 2.13867 10.3542C2.13867 10.2248 2.18589 10.0999 2.27146 10.0028C2.31129 9.95658 2.36062 9.91948 2.41609 9.89406C2.47157 9.86863 2.53187 9.85547 2.59289 9.85547C2.65391 9.85547 2.71421 9.86863 2.76968 9.89406C2.82515 9.91948 2.87449 9.95658 2.91432 10.0028L6.30003 13.7228C6.47146 13.9157 6.47146 14.2328 6.30003 14.4257C6.2602 14.4719 6.21087 14.509 6.1554 14.5344C6.09993 14.5598 6.03962 14.573 5.9786 14.573C5.91758 14.573 5.85728 14.5598 5.80181 14.5344C5.74634 14.509 5.69701 14.4719 5.65717 14.4257L2.27146 10.7057ZM11.4429 10.0028C11.6143 10.1957 11.6143 10.5128 11.4429 10.7057L8.05717 14.4257C8.01734 14.4719 7.96801 14.509 7.91254 14.5344C7.85707 14.5598 7.79677 14.573 7.73575 14.573C7.67472 14.573 7.61442 14.5598 7.55895 14.5344C7.50348 14.509 7.45415 14.4719 7.41432 14.4257C7.32874 14.3286 7.28153 14.2036 7.28153 14.0742C7.28153 13.9448 7.32874 13.8199 7.41432 13.7228L10.8 10.0028C10.8399 9.95658 10.8892 9.91948 10.9447 9.89406C11.0001 9.86863 11.0604 9.85547 11.1215 9.85547C11.1825 9.85547 11.2428 9.86863 11.2983 9.89406C11.3537 9.91948 11.4031 9.95658 11.4429 10.0028ZM12.5572 10.7057C12.4716 10.6086 12.4244 10.4836 12.4244 10.3542C12.4244 10.2248 12.4716 10.0999 12.5572 10.0028C12.597 9.95658 12.6463 9.91948 12.7018 9.89406C12.7573 9.86863 12.8176 9.85547 12.8786 9.85547C12.9396 9.85547 12.9999 9.86863 13.0554 9.89406C13.1109 9.91948 13.1602 9.95658 13.2 10.0028L16.5857 13.7228C16.7572 13.9157 16.7572 14.2328 16.5857 14.4257C16.5459 14.4719 16.4966 14.509 16.4411 14.5344C16.3856 14.5598 16.3253 14.573 16.2643 14.573C16.2033 14.573 16.143 14.5598 16.0875 14.5344C16.0321 14.509 15.9827 14.4719 15.9429 14.4257L12.5572 10.7057ZM21.7286 10.7057C21.9 10.5128 21.9 10.1957 21.7286 10.0028C21.6888 9.95658 21.6394 9.91948 21.584 9.89406C21.5285 9.86863 21.4682 9.85547 21.4072 9.85547C21.3462 9.85547 21.2859 9.86863 21.2304 9.89406C21.1749 9.91948 21.1256 9.95658 21.0857 10.0028L17.7 13.7228C17.6145 13.8199 17.5672 13.9448 17.5672 14.0742C17.5672 14.2036 17.6145 14.3286 17.7 14.4257C17.7399 14.4719 17.7892 14.509 17.8447 14.5344C17.9001 14.5598 17.9604 14.573 18.0215 14.573C18.0825 14.573 18.1428 14.5598 18.1983 14.5344C18.2537 14.509 18.3031 14.4719 18.3429 14.4257L21.7286 10.7057Z" fill="#F2F2F2"/>
</g>
<defs>
<linearGradient id="paint0_linear_31_20825" x1="4.46571" y1="4.16143" x2="29.2071" y2="32.58" gradientUnits="userSpaceOnUse">
<stop stop-color="#1A1E21"/>
<stop offset="1" stop-color="#06060A"/>
</linearGradient>
<clipPath id="clip0_31_20825">
<rect width="24" height="24" fill="white"/>
</clipPath>
</defs>
</svg>

<svg xmlns="http://www.w3.org/2000/svg" width="24" height="24" fill="none" viewBox="0 0 24 24"><g clip-path="url(#a)"><path fill="url(#b)" d="M0 0h24v24H0z"/><path fill="#F2F2F2" d="M2.271 10.706a.53.53 0 0 1 0-.703.424.424 0 0 1 .643 0l3.386 3.72a.545.545 0 0 1 0 .703.424.424 0 0 1-.643 0zm9.172-.703a.545.545 0 0 1 0 .703l-3.386 3.72a.424.424 0 0 1-.643 0 .53.53 0 0 1 0-.703l3.386-3.72a.425.425 0 0 1 .643 0m1.114.703a.53.53 0 0 1 0-.703.424.424 0 0 1 .643 0l3.386 3.72a.544.544 0 0 1 0 .703.423.423 0 0 1-.643 0zm9.172 0a.545.545 0 0 0 0-.703.425.425 0 0 0-.643 0l-3.386 3.72a.53.53 0 0 0 0 .703.425.425 0 0 0 .643 0z"/></g><defs><linearGradient id="b" x1="4.466" x2="29.207" y1="4.161" y2="32.58" gradientUnits="userSpaceOnUse"><stop stop-color="#1A1E21"/><stop offset="1" stop-color="#06060A"/></linearGradient><clipPath id="a"><path fill="#fff" d="M0 0h24v24H0z"/></clipPath></defs></svg>
